src/images/instagram.svg

<svg fill="none" height="53" viewBox="0 0 53 53" width="53" xmlns="http://www.w3.org/2000/svg"><g fill="#3b7ae1"><path d="m42.6954-.00017911c.1197.10536711.2548.19176211.4007.25617411 6.4898 1.671705 9.5606 5.537315 9.5836 12.240505.035 9.2464.035 18.4917 0 27.7359-.0329 7.4093-4.2696 12.0796-11.5936 12.3456-9.8923.3613-19.801.312-29.6965 0-5.85593-.1839-9.65913-3.501-11.058241-9.196-.065686-.2594-.049265-.5485-.32842931-.7028v-32.5145c.40396731-.37113.30872531-.90647.43024331-1.36627 1.129797-4.3057 3.809777-7.08093 8.092487-8.33224.44338-.128088 1.005-.000001 1.31372-.4827916zm-16.3328 6.89700911c-2.8442 0-5.6916-.1051-8.5391.01971-6.3945.27588-10.45062 4.08896-10.85787 10.45056-.37934 6.0054-.37934 12.0287 0 18.0341.38426 6.0726 4.18747 9.8529 10.29627 10.2864 6.2174.4729 12.4623.4598 18.6777-.0394 5.4651-.4598 9.219-4.1678 9.7084-9.6066.5348-6.2136.5557-12.4607.0624-18.6777-.4926-6.5489-4.4371-10.18134-10.9991-10.45722-2.7686-.10838-5.5636-.01313-8.3487-.01313z"/><path d="m10.4505 26.2546c0-2.7884-.1084-5.5833.0263-8.3585.2189-4.6659 2.646-7.1444 7.2812-7.4356 5.7848-.3613 11.5867-.3547 17.3706.0197 4.2368.2758 6.7394 2.5256 7.0711 6.7656.4615 6.0529.4615 12.1322 0 18.1851-.3087 4.0824-2.519 6.3321-6.5686 6.6868-6.1547.5452-12.3456.5452-18.5004 0-4.2301-.381-6.4109-2.8934-6.6244-7.1729-.1445-2.8901-.0295-5.7902-.0295-8.6869zm5.869.0263c-.016 1.9862.5565 3.9327 1.6454 5.5939 1.0888 1.6612 2.6452 2.9628 4.4729 3.7406 1.8276.7778 3.8447.9969 5.7967.6298 1.9521-.3672 3.7517-1.3042 5.1719-2.6928 1.4202-1.3887 2.3973-3.1668 2.8082-5.1101s.2372-3.9647-.4994-5.8094c-.7365-1.8447-2.0028-3.4299-3.6392-4.5558-1.6363-1.1259-3.5694-1.742-5.5555-1.7706-1.3253-.0169-2.6409.2279-3.8714.7203-1.2305.4925-2.3517 1.223-3.2993 2.1496-.9477.9266-1.7032 2.0311-2.2232 3.2503-.52 1.2191-.7942 2.5289-.8071 3.8542zm20.4447-12.7398c-.5993.024-1.1671.2747-1.5885.7016-.4213.4268-.6648.9979-.6809 1.5974-.0042.3129.0551.6234.1741.9127.119.2894.2954.5517.5185.7711s.4883.3914.7796.5056.6027.1682.9154.1589c.3121-.0059.6197-.0753.9041-.2039s.5396-.3138.7501-.5443.3719-.5014.4743-.7962c.1024-.2949.1436-.6075.1213-.9188-.0379-.5988-.3052-1.1599-.7462-1.5667-.4411-.4068-1.0219-.6279-1.6218-.6174z"/></g></svg>

<svg width="53" height="53" viewBox="0 0 53 53" fill="none" xmlns="http://www.w3.org/2000/svg">
<path d="M42.6954 -0.000179108C42.8151 0.105188 42.9502 0.191583 43.0961 0.255995C49.5859 1.9277 52.6567 5.79331 52.6797 12.4965C52.7147 21.7429 52.7147 30.9882 52.6797 40.2324C52.6468 47.6417 48.4101 52.312 41.0861 52.578C31.1938 52.9393 21.2851 52.89 11.3896 52.578C5.53367 52.3941 1.73047 49.077 0.331359 43.382C0.265673 43.1226 0.282094 42.8335 0.00292969 42.6792V10.1647C0.406897 9.79357 0.311655 9.25823 0.433173 8.79843C1.56297 4.49273 4.24295 1.7175 8.52566 0.46619C8.96904 0.338102 9.53066 0.466189 9.83938 -0.0166016L42.6954 -0.000179108ZM26.3626 6.89683C23.5184 6.89683 20.671 6.79173 17.8235 6.91654C11.429 7.19242 7.37288 11.0055 6.96563 17.3671C6.58629 23.3725 6.58629 29.3958 6.96563 35.4012C7.34989 41.4738 11.1531 45.2541 17.2619 45.6876C23.4793 46.1605 29.7242 46.1474 35.9396 45.6482C41.4047 45.1884 45.1586 41.4804 45.648 36.0416C46.1828 29.828 46.2037 23.5809 45.7104 17.3639C45.2178 10.815 41.2733 7.18256 34.7113 6.90668C31.9427 6.7983 29.1477 6.89355 26.3626 6.89355V6.89683Z" fill="#3B7AE1"/>
<path d="M10.4505 26.2546C10.4505 23.4662 10.3421 20.6713 10.4768 17.8961C10.6957 13.2302 13.1228 10.7517 17.758 10.4605C23.5428 10.0992 29.3447 10.1058 35.1286 10.4802C39.3654 10.756 41.868 13.0058 42.1997 17.2458C42.6612 23.2987 42.6612 29.378 42.1997 35.4309C41.891 39.5133 39.6807 41.763 35.6311 42.1177C29.4764 42.6629 23.2855 42.6629 17.1307 42.1177C12.9006 41.7367 10.7198 39.2243 10.5063 34.9448C10.3618 32.0547 10.4768 29.1546 10.4768 26.2579L10.4505 26.2546ZM16.3195 26.2809C16.3035 28.2671 16.876 30.2136 17.9649 31.8748C19.0537 33.536 20.6101 34.8376 22.4378 35.6154C24.2654 36.3932 26.2825 36.6123 28.2345 36.2452C30.1866 35.878 31.9862 34.941 33.4064 33.5524C34.8266 32.1637 35.8037 30.3856 36.2146 28.4423C36.6255 26.499 36.4518 24.4776 35.7152 22.6329C34.9787 20.7882 33.7124 19.203 32.076 18.0771C30.4397 16.9512 28.5066 16.3351 26.5205 16.3065C25.1952 16.2896 23.8796 16.5344 22.6491 17.0268C21.4186 17.5193 20.2974 18.2498 19.3498 19.1764C18.4021 20.103 17.6466 21.2075 17.1266 22.4267C16.6066 23.6458 16.3324 24.9556 16.3195 26.2809ZM36.7642 13.5411C36.1649 13.5651 35.5971 13.8158 35.1757 14.2427C34.7544 14.6695 34.5109 15.2406 34.4948 15.8401C34.4906 16.153 34.5499 16.4635 34.6689 16.7528C34.7879 17.0422 34.9643 17.3045 35.1874 17.5239C35.4105 17.7433 35.6757 17.9153 35.967 18.0295C36.2583 18.1437 36.5697 18.1977 36.8824 18.1884C37.1945 18.1825 37.5021 18.1131 37.7865 17.9845C38.0709 17.8559 38.3261 17.6707 38.5366 17.4402C38.7471 17.2097 38.9085 16.9388 39.0109 16.644C39.1133 16.3491 39.1545 16.0365 39.1322 15.7252C39.0943 15.1264 38.827 14.5653 38.386 14.1585C37.9449 13.7517 37.3641 13.5306 36.7642 13.5411Z" fill="#3B7AE1"/>
</svg>
